X:1
T:Title
L:1/8
M:4/4
K:F
V:1 treble nm="Grand Piano"
V:1
 z4 z2 z[Q:1/4=100] C | FFFG AAAB | cBAB G3 G | EEEF GGGA | BAGA F3 c | AAAc BBBB | GGGB A3 A | %7
 FFFA GGGA | BAGE F2 C2 | F3 G A2 A2 | B3 A G4- | G2 C2 G3 A | B2 d2 c4- | c2 A2 c3 A | %14
 B2 G2 B3 G | A2 F2 A3 F | G2 E2 F4 |] %17

